X:831
T:Donegal Traveller, The
T:Gillespie's
T:Drunken Tinker, The
T:Boreen Reel, The
R:reel
H:Also played in A (see #401) or in C
Z:id:hn-reel-831
M:C|
L:1/8
K:D
d2Ad FdAd | d2fd cdec | d2Ad Fdef |1 gbag fdec :|2 gbag fddf ||
~a3g afdf | abaf ge~e2 | ad~d2 bd~d2 | adag fddf |
~a3g afdf | abaf geef | ~g3f gfed | Baag fgec ||
